Sources/FrostedUI/Resources/Icons.xcassets/sunSize12.imageset/sun-size-12.svg

<svg
  width="12"
  height="12"
  viewBox="0 0 12 12"
  fill="none"
  xmlns="http://www.w3.org/2000/svg"
  data-fui-icon="true"
>
  <path
    d="M5.9991 1.64541V0.883781M2.91993 9.07929L2.38138 9.61784M5.9991 11.1163V10.3547M9.6167 2.38233L9.0781 2.92089M10.3535 6.00004H11.1152M9.0781 9.07929L9.6167 9.61784M0.882812 6.00004H1.64444M2.38134 2.3823L2.91989 2.92086M7.8552 4.1439C8.8803 5.16904 8.8803 6.83109 7.8552 7.85619C6.83005 8.88134 5.168 8.88134 4.14287 7.85619C3.11774 6.83109 3.11774 5.16904 4.14287 4.1439C5.168 3.11877 6.83005 3.11877 7.8552 4.1439Z"
    stroke="currentColor"
    stroke-width="1.5"
    stroke-linecap="round"
    stroke-linejoin="round"
  />
</svg>

<svg xmlns="http://www.w3.org/2000/svg" width="12" height="12" fill="none" data-fui-icon="true" viewBox="0 0 12 12"><path stroke="currentColor" stroke-linecap="round" stroke-linejoin="round" stroke-width="1.5" d="M6 1.645V.884M2.92 9.079l-.539.539M6 11.116v-.761m3.618-7.973-.539.539M10.354 6h.761M9.078 9.08l.539.538M.883 6h.761m.737-3.618.539.539m4.935 1.223a2.625 2.625 0 1 1-3.712 3.712 2.625 2.625 0 0 1 3.712-3.712"/></svg>
